src/_images/icons/add-to-playlist.svg

<?xml version="1.0" encoding="utf-8"?>
<!-- Generator: Adobe Illustrator 19.2.1, SVG Export Plug-In . SVG Version: 6.00 Build 0)  -->
<svg version="1.1" id="Layer_1" xmlns="http://www.w3.org/2000/svg" xmlns:xlink="http://www.w3.org/1999/xlink" x="0px" y="0px"
	 viewBox="0 0 19 14" style="enable-background:new 0 0 19 14;" xml:space="preserve">
<style type="text/css">
	.st0{fill:#FFFFFF;}
</style>
<path id="Rectangle_1_copy_2" class="st0" d="M0,4h11v2H0V4z M0,0h14v2H0V0z M0,8h7v2H0V8z M13,4h2v10h-2V4z M9,8h4v2H9V8z M15,8h4
	v2h-4V8z"/>
</svg>

<svg xmlns="http://www.w3.org/2000/svg" width="19" height="14" viewBox="0 0 19 14">
  <defs>
    <style>
      .cls-1 {
        fill: #00234f;
        fill-rule: evenodd;
      }
    </style>
  </defs>
  <path id="Rectangle_1_copy_2" data-name="Rectangle 1 copy 2" class="cls-1" d="M0,4H11V6H0V4ZM0,0H14V2H0V0ZM0,8H7v2H0V8ZM13,4h2V14H13V4ZM9,8h4v2H9V8Zm6,0h4v2H15V8Z"/>
</svg>
